public/images/stack-items/cms-orb-paint.svg

<svg height="114" viewBox="0 0 144 114" width="144" xmlns="http://www.w3.org/2000/svg" xmlns:xlink="http://www.w3.org/1999/xlink"><defs><path id="a" d="m101.58933 0c56.480115 0 51.721844 60.9657451 13.996634 92.9490392-37.7252095 31.9832938-132.0495991 30.8244708-113.09769546-26.5473795 18.95190366-57.37185002 42.62094676-66.4016597 99.10106146-66.4016597z"/><mask id="b" fill="#fff"><use fill="#fff" fill-rule="evenodd" xlink:href="#a"/></mask></defs><g fill="none" fill-rule="evenodd"><use fill="#20c778" opacity=".9" xlink:href="#a"/><g fill="#fff" fill-rule="nonzero"><path d="m87.7004608 26h-36.4900683c-2.3157159 0-4.2103925 1.8798665-4.2103925 4.2658509v34.1268076c0 2.3859844 1.8245034 4.7345269 4.1402193 4.7345269h11.7189258c.7017321 0 1.2631177.5061179 1.4034641 1.1568409 1.1227714 6.2903226.3508661 8.5691439-.4210392 11.0274309-.2105196.650723-.350866 1.301446-.5613857 1.9521691-.1403464.5061179-.1403464.9399332-.1403464 1.3737486 0 3.5428253 2.8069283 6.3626251 6.3155888 6.3626251 3.4384872 0 6.1752423-2.8197998 6.1752423-6.3626251 0-.5061179-.0701732-1.0122359-.1403464-1.4460512-.1403464-.650723-.3508661-1.3014461-.4912125-1.8798665-.7017321-2.458287-1.6139838-4.8094109-.4912124-11.0997335.1403464-.650723.701732-1.1568409 1.4034641-1.1568409h11.789099c2.3157159 0 4.2805657-2.3485424 4.2805657-4.7345268v-34.0545051c-.0701732-2.3859844-1.9648498-4.2658509-4.2805657-4.2658509zm-36.4900683 2.8197998h36.4900683c.7719053 0 1.4034642.8956171 1.4034642 1.9902602v19.88994h-39.2969967v-19.88994c0-1.0946431.6315589-1.9902602 1.4034642-1.9902602zm37.8935325 24.4802002v2.6h-39.2969967v-2.6zm-1.3508054 11.8239065h-11.789099c-2.035023 0-3.842012 2.2974203-4.1928781 4.3805849-1.2631177 6.8959929-.2806928 10.1284895.5613857 12.7863201.2105196.5746661.350866 1.1493322.4912125 1.7239983.0701732.2154997.0701732.5028328.0701732.7901658 0 2.0113313-1.4736374 3.5198297-3.368314 3.5198297-1.8946767 0-3.5086604-1.5803317-3.5086604-3.5198297 0-.2154998 0-.5028328.0701732-.7901658.1403464-.5746661.2806928-1.1493322.4912124-1.7239983.7719053-2.5859973 1.7543302-5.8903272.5613857-12.7863201-.3508661-2.0113313-2.0525374-4.3087516-4.0875605-4.3087516h-11.789099c-.7719053 0-1.4034642-.6464993-1.4034642-1.4366652l-.0526588-5.2590746h39.2969967l.0526588 5.2590746c0 .7183326-.6315589 1.3648319-1.4034642 1.3648319z" mask="url(#b)"/><path d="m50.0394173 43.5181517-1.7098614-1.9586667c6.3827931-5.5720003 9.0343019-5.9538321 20.6069588-3.3829416 4.8862171 1.0854836 9.9604474 1.1427773 14.0796301.3045397 3.5000649-.7122496 5.7206741-2.0009656 5.8583641-2.9352272l2.5722155.379089c-.7053952 4.7862862-12.3880065 7.1636522-23.0740594 4.7897226-10.8392832-2.4079699-12.6645629-2.1451196-18.3332477 2.8034842z" mask="url(#b)"/></g></g></svg>

<?xml version="1.0" encoding="UTF-8"?>
<svg width="144px" height="114px" viewBox="0 0 144 114" version="1.1" xmlns="http://www.w3.org/2000/svg" xmlns:xlink="http://www.w3.org/1999/xlink">
    <!-- Generator: Sketch 50.2 (55047) - http://www.bohemiancoding.com/sketch -->
    <title>cms-orb-paint</title>
    <desc>Created with Sketch.</desc>
    <defs>
        <path d="M101.58933,-2.27373675e-13 C158.069445,-2.2811527e-13 153.311174,60.9657451 115.585964,92.9490392 C77.8607545,124.932333 -16.4636351,123.77351 2.48826854,66.4016597 C21.4401722,9.02980968 45.1092153,-2.2811527e-13 101.58933,-2.27373675e-13 Z" id="path-1"></path>
    </defs>
    <g id="Landing-Page" stroke="none" stroke-width="1" fill="none" fill-rule="evenodd">
        <g id="landing-v14" transform="translate(-965.000000, -2110.000000)">
            <g id="03-cms" transform="translate(40.000000, 1817.000000)">
                <g id="art" transform="translate(881.000000, 76.000000)">
                    <g id="cms-orb-paint" transform="translate(44.000000, 217.000000)">
                        <g id="Shape-+-Path-3-Mask">
                            <mask id="mask-2" fill="white">
                                <use xlink:href="#path-1"></use>
                            </mask>
                            <use id="Mask" fill="#20C778" opacity="0.900000036" xlink:href="#path-1"></use>
                            <path d="M87.7004608,26 L51.2103925,26 C48.8946766,26 47,27.8798665 47,30.2658509 L47,64.3926585 C47,66.7786429 48.8245034,69.1271854 51.1402193,69.1271854 L62.8591451,69.1271854 C63.5608772,69.1271854 64.1222628,69.6333033 64.2626092,70.2840263 C65.3853806,76.5743489 64.6134753,78.8531702 63.84157,81.3114572 C63.6310504,81.9621802 63.490704,82.6129032 63.2801843,83.2636263 C63.1398379,83.7697442 63.1398379,84.2035595 63.1398379,84.6373749 C63.1398379,88.1802002 65.9467662,91 69.4554267,91 C72.8939139,91 75.630669,88.1802002 75.630669,84.6373749 C75.630669,84.131257 75.5604958,83.625139 75.4903226,83.1913237 C75.3499762,82.5406007 75.1394565,81.8898776 74.9991101,81.3114572 C74.297378,78.8531702 73.3851263,76.5020463 74.5078977,70.2117237 C74.6482441,69.5610007 75.2096297,69.0548828 75.9113618,69.0548828 L87.7004608,69.0548828 C90.0161767,69.0548828 91.9810265,66.7063404 91.9810265,64.320356 L91.9810265,30.2658509 C91.9108533,27.8798665 90.0161767,26 87.7004608,26 Z M51.2103925,28.8197998 L87.7004608,28.8197998 C88.4723661,28.8197998 89.103925,29.7154169 89.103925,30.81006 L89.103925,50.7 L49.8069283,50.7 L49.8069283,30.81006 C49.8069283,29.7154169 50.4384872,28.8197998 51.2103925,28.8197998 Z M89.103925,53.3 L89.103925,55.9 L49.8069283,55.9 L49.8069283,53.3 L89.103925,53.3 Z M87.7531196,65.1239065 L75.9640206,65.1239065 C73.9289976,65.1239065 72.1220086,67.4213268 71.7711425,69.5044914 C70.5080248,76.4004843 71.4904497,79.6329809 72.3325282,82.2908115 C72.5430478,82.8654776 72.6833942,83.4401437 72.8237407,84.0148098 C72.8939139,84.2303095 72.8939139,84.5176426 72.8939139,84.8049756 C72.8939139,86.8163069 71.4202765,88.3248053 69.5255999,88.3248053 C67.6309232,88.3248053 66.0169395,86.7444736 66.0169395,84.8049756 C66.0169395,84.5894758 66.0169395,84.3021428 66.0871127,84.0148098 C66.2274591,83.4401437 66.3678055,82.8654776 66.5783251,82.2908115 C67.3502304,79.7048142 68.3326553,76.4004843 67.1397108,69.5044914 C66.7888447,67.4931601 65.0871734,65.1957398 63.0521503,65.1957398 L51.2630513,65.1957398 C50.491146,65.1957398 49.8595871,64.5492405 49.8595871,63.7590746 L49.8069283,58.5 L89.103925,58.5 L89.1565838,63.7590746 C89.1565838,64.4774072 88.5250249,65.1239065 87.7531196,65.1239065 Z" id="Shape" fill="#FFFFFF" fill-rule="nonzero" mask="url(#mask-2)"></path>
                            <path d="M50.0394173,43.5181517 L48.3295559,41.559485 C54.712349,35.9874847 57.3638578,35.6056529 68.9365147,38.1765434 C73.8227318,39.262027 78.8969621,39.3193207 83.0161448,38.4810831 C86.5162097,37.7688335 88.7368189,36.4801175 88.8745089,35.5458559 L91.4467244,35.9249449 C90.7413292,40.7112311 79.0587179,43.0885971 68.372665,40.7146675 C57.5333818,38.3066976 55.7081021,38.5695479 50.0394173,43.5181517 Z" id="Path-3" fill="#FFFFFF" fill-rule="nonzero" mask="url(#mask-2)"></path>
                        </g>
                        <g id="Group-5" transform="translate(47.000000, 26.000000)"></g>
                    </g>
                </g>
            </g>
        </g>
    </g>
</svg>
